X:1
T:Jesus bleibet meine Freude, adapted to four keyboards (A = 415 Hz)
T:From: Herz und Mund und Tat und Leben, BWV 147
T:J. S. Bach
%%score { 1 | 2 } { 3 | 4 } { 5 | 6 } { 7 | 8 }
L:1/8
M:3/4
K:Gb
V:1 treble nm="Harp"
V:2 bass 
V:3 treble nm="Harp"
V:4 bass 
V:5 treble nm="Harp"
V:6 bass 
V:7 treble nm="Harp"
V:8 bass 
V:1
 (3z GA (3Bdc (3ced | (3dgf (3gdB (3GAB | (3cde (3dcB (3ABG | (3FGA (3DFA (3cBA | %4
 (3BGA (3Bdc (3ced | (3dgf (3gdB (3GAB | (3Edc (3BAG (3DGF | (3GBd (3gdB (3GBd | g2 z4 | z6 | z6 | %11
 (3z DE (3FAG (3AcB | (3cAF (3DFA (3cBA | (3BGA (3Bdc (3ced | (3dgf (3gdB (3GAB | %15
 (3Edc (3BAG (3DGF | (3GBA (3Bdc (3ced | (3dgf (3gdB (3GAB | (3cde (3dcB (3ABG | %19
 (3FGA (3DFA (3cBA | (3BGA (3Bdc (3ced | (3dgf (3gdB (3GAB | (3Edc (3BAG (3DGF | G2 z4 | z6 | z6 | %26
 (3z DE (3FAG (3AcB | (3cAF (3DFA (3cBA | (3BGA (3Bdc (3ced | (3dgf (3gdB (3GAB | %30
 (3Edc (3BAG (3DGF | (3GBA (3Bdc (3ced | (3dgf (3gdB (3GAB | (3cde (3dcB (3ABG | %34
 (3FGA (3DFA (3cBA | (3BGA (3Bdc (3ced | (3dgf (3gdB (3GAB | (3Edc (3BAG (3DGF | %38
 (3GBd (3gdB (3GB=c | (3dDE (3FA=G (3GBA | (3AcB (3cAE (3CDE | (3_Fdc (3dB=G (3E=FG | %42
 (3AcB (3ced (3d_fe | (3ea=g (3aec (3ABc | (3_fed (3cBA (3EA=G | (3Ace (3a z z z2 | %46
 (3z cd (3eg_f (3g=a_a | (3ac'b (3c'a_f (3de_f | (3egf (3gec (3GA=A | (3AcB (3cA_F (3DEF | %50
 (3ECD (3EGF (3GBA | (3BGA (3Bdc (3ced | (3dgf (3gdB (3GAB | (3cde (3dcB (3ABG | %54
 (3FDE (3FAG (3AcB | (3cAF (3DFA (3cBA | (3BGA (3Bdc (3ced | (3dgf (3gdB (3GAB | %58
 (3Edc (3BAG (3DGF | (3GBd (3gdB (3GBd | (3_fdB (3GBd (3ecA | (3FAc (3dBG (3EGB | %62
 (3cAF (3DFA (3cBA | (3BGA (3Bdc (3ced | (3dgf (3gdB (3GAB | (3cde (3dcB (3ABG | %66
 (3FGA (3DFA (3cBA | (3BGA (3Bdc (3ced | (3dgf (3gdB (3GAB | (3Edc (3BAG (3DGF | G6 |] %71
V:2
 z2 D,2 E,2 | G,2 E,2 B,,2 | A,,2 D,2 C,2- | C,2 A,,2 F,2 | G,2 G,,2 E,2 | G,2 E,2 B,,2 | %6
 C,2 E,2 D,2 | D,2 (3z z D, (3:2:2B,,2 G, | D,2 z2 z2 | z6 | z6 | z2 (3:2:2A,,2 A,, (3:2:2D,2 D, | %12
 (3:2:2F,2 A, (3:2:2F,2 D, (3:2:2B,,2 D, | D,2 D,2 E,2 | G,2 D,2 B,,2 | C,A,, D,B,, C,A,, | %16
 B,,2 D,2 E,2 | G,2 E,2 B,,2 | A,,2 D,2 C,2- | C,2 A,,2 F,2 | G,2 G,,2 E,2 | G,2 E,2 B,,2 | %22
 C,2 E,2 D,2 | D,2 z2 z2 | z6 | z6 | z2 (3:2:2A,,2 A,, (3:2:2D,2 D, | %27
 (3:2:2F,2 A, (3:2:2F,2 D, (3:2:2A,,2 D, | D,2 D,2 E,2 | G,2 D,2 B,,2 | C,A,, D,B,, C,A,, | %31
 B,,2 D,2 E,2 | G,2 E,2 B,,2 | A,,2 D,2 C,2- | C,2 A,,2 F,2 | G,2 G,,2 E,2 | G,2 E,2 B,,2 | %37
 C,2 E,2 D,2 | D,2 (3z z G, (3:2:2D,2 E, | F,2 D,2 D,2 | E,2 A,,2 A,2- | A,2 A,2 =G,2 | %42
 E,2 A,,2 _F,2 | A,2 _F,2 C,2 | D,2 F,2 E,2 | E,2 z2 z2 | z2 A,2 G,2 | D,2 _F,2 G,2 | G,2 E,2 G,2 | %49
 _F,2 A,2 G,2 | G,2 (3z z D, (3:2:2D,2 D, | D,2 D,2 E,2 | G,2 E,2 B,,2 | A,,2 D,2 C,2- | %54
 C,2 (3:2:2A,,2 A,, (3:2:2D,2 D, | (3:2:2F,2 A, (3:2:2F,2 D, (3A,, z D, | D,2 D,2 E,2 | %57
 G,2 D,2 B,,2 | C,A,, D,B,, C,A,, | B,,2 (3z z G, (3:2:2D,2 F, | D,2 (3z z G, (3:2:2E,2 C, | %61
 A,,2 (3z z D, (3:2:2B,,2 E, | (3:2:2E,,2 A,, (3:2:2F,,2 A, (3:2:2F,2 D, | D,2 D,2 E,2 | %64
 G,2 D,2 B,,2 | A,,2 D,2 C,2- | C,2 A,,2 F,2 | G,2 G,,2 E,2 | G,2 E,2 B,,2 | C,2 E,2 D,2 | D,6 |] %71
V:3
 z2 (3:2:2G2 F (3:2:2G2 A | (3:2:2B2 A (3:2:2B2 G (3:2:2E2 D | (3:2:2E2 F (3:2:2G2 D (3:2:2E2 B, | %3
 (3:2:2A,2 D (3:2:2A2 G (3:2:2A2 F | (3:2:2D2 F (3:2:2G2 F (3:2:2G2 A | %5
 (3:2:2B2 A (3:2:2B2 G (3:2:2E2 G | (3:2:2A2 F (3:2:2G2 D (3:2:2A,2 C | %7
 (3:2:2B,2 G (3:2:2B2 d (3:2:2g2 d | B2 z4 | z6 | z6 | z2 (3:2:2D2 E (3:2:2F2 G | %12
 (3:2:2A2 c (3:2:2A2 F (3:2:2D2 F | (3:2:2G2 D (3:2:2G2 F (3:2:2G2 A | %14
 (3:2:2B2 A (3:2:2G2 F (3:2:2E2 G | (3:2:2A2 G (3:2:2F2 G (3:2:2A2 C | %16
 (3:2:2B,2 D (3:2:2G2 F (3:2:2G2 A | (3:2:2B2 A (3:2:2B2 G (3:2:2E2 D | %18
 (3:2:2E2 F (3:2:2G2 D (3:2:2E2 B, | (3:2:2A,2 D (3:2:2A2 G (3:2:2A2 F | %20
 (3:2:2D2 F (3:2:2G2 F (3:2:2G2 A | (3:2:2B2 A (3:2:2B2 G (3:2:2E2 G | %22
 (3:2:2A2 F (3:2:2G2 E (3:2:2A,2 C | B,2 z4 | z6 | z6 | z2 (3:2:2D2 E (3:2:2F2 G | %27
 (3:2:2A2 c (3:2:2A2 F (3:2:2D2 F | (3:2:2G2 D (3:2:2G2 F (3:2:2G2 A | %29
 (3:2:2B2 A (3:2:2G2 F (3:2:2E2 G | (3:2:2A2 G (3:2:2F2 G (3:2:2A2 C | %31
 (3:2:2B,2 D (3:2:2G2 F (3:2:2G2 A | (3:2:2B2 A (3:2:2B2 G (3:2:2E2 D | %33
 (3:2:2E2 F (3:2:2G2 D (3:2:2E2 B, | (3:2:2A,2 D (3:2:2A2 G (3:2:2A2 F | %35
 (3:2:2D2 F (3:2:2G2 F (3:2:2G2 A | (3:2:2B2 A (3:2:2B2 G (3:2:2E2 G | %37
 (3:2:2A2 G (3:2:2F2 G (3:2:2A,2 C | (3:2:2B,2 G (3:2:2B2 d (3:2:2g2 G | %39
 (3:2:2A2 G (3:2:2A2 d (3:2:2D2 C | (3:2:2C2 D (3:2:2E2 C (3:2:2A,2 C | %41
 (3:2:2D2 E (3:2:2_F2 D (3:2:2B,2 D | (3:2:2C2 E (3:2:2A2 =G (3:2:2A2 B | %43
 (3:2:2c2 B (3:2:2c2 A (3:2:2_F2 A | (3:2:2A2 =G (3:2:2A2 F (3:2:2B,2 D | C2 z4 | %46
 z2 (3:2:2c2 d (3:2:2e2 c | (3:2:2_F2 G (3:2:2A2 d (3:2:2B2 d | (3:2:2c2 G (3:2:2c2 G (3:2:2E2 D | %49
 (3:2:2C2 E (3:2:2_F2 A (3:2:2B2 d | (3:2:2c2 G (3c z A (3:2:2d2 F | %51
 (3:2:2G2 D (3:2:2G2 F (3:2:2G2 A | (3:2:2B2 A (3:2:2B2 G (3:2:2E2 D | %53
 (3:2:2E2 F (3:2:2G2 D (3:2:2E2 B, | (3:2:2A,2 =C (3:2:2D2 E (3:2:2F2 G | %55
 (3:2:2A2 c (3:2:2A2 F (3:2:2D2 F | (3:2:2G2 D (3:2:2G2 F (3:2:2G2 A | %57
 (3:2:2B2 A (3:2:2G2 F (3:2:2E2 G | (3:2:2A2 G (3:2:2F2 G (3:2:2A2 C | %59
 (3:2:2B,2 G (3:2:2B2 d (3:2:2g2 d | (3:2:2B2 G (3:2:2d2 B c2- | (3:2:2c2 B B2- (3:2:2B2 G | %62
 A2- (3:2:2A2 F (3:2:2D2 F | (3:2:2G2 D (3:2:2G2 F (3:2:2G2 A | (3:2:2B2 A (3:2:2B2 G (3:2:2E2 D | %65
 (3:2:2E2 F (3:2:2G2 D (3:2:2E2 B, | (3:2:2A,2 D (3:2:2A2 G (3:2:2A2 F | %67
 (3:2:2D2 F (3:2:2G2 F (3:2:2G2 A | (3:2:2B2 A (3:2:2B2 G (3:2:2E2 G | %69
 (3:2:2A2 F (3G z E (3:2:2A,2 C | B,6 |] %71
V:4
 G,,2 G,2 E,2 | B,,2 E,2 E,,2 | A,,2 B,,2 C,2 | D,2 F,2 D,2 | G,2 E,2 C,2 | B,,2 E,2 D,2 | %6
 C,2 =C,2 D,2 | G,,2 (3z z G, (3:2:2D,2 B,, | G,,2 F,2 E,2 | F,2 E,2 D,2 | E,2 F,2 G,2 | %11
 D,2 (3z z D, (3:2:2D,2 D, | D,,2 (3z z D, (3:2:2D,2 D, | G,2 F,2 E,2 | B,2 B,,2 E,2 | %15
 C,2 D,2 D,,2 | G,,2 G,2 E,2 | B,,2 E,2 E,,2 | A,,2 B,,2 C,2 | D,2 F,2 D,2 | G,2 E,2 C,2 | %21
 B,,2 E,2 D,2 | C,2 =C,2 D,2 | G,,2 F,2 E,2 | F,2 E,2 D,2 | E,2 F,2 G,2 | %26
 D,2 (3z z D, (3:2:2D,2 D, | D,,2 (3z z D, (3:2:2D,2 D, | G,2 F,2 E,2 | B,2 B,,2 E,2 | %30
 C,2 D,2 D,,2 | G,,2 G,2 E,2 | B,,2 E,2 E,,2 | A,,2 B,,2 C,2 | D,2 F,2 D,2 | G,2 E,2 C,2 | %36
 B,,2 E,2 D,2 | C,2 =C,2 D,2 | G,,2 (3z z G, (3:2:2F,2 E, | D,2 C,2 B,,2 | A,,2 A,G, _F,E, | %41
 D,2 B,,2 E,2 | A,,2 _F,2 D,2 | C,2 _F,2 E,2 | D,2 =D,2 E,2 | A,,2 A,2 B,2 | C2 A,2 E,2 | %47
 _F,2 D,2 G,2 | C,2 E,2 C,2 | _F,2 D,2 G,2 | C,2 (3z z C, (3:2:2B,,2 D, | G,,2 G,2 E,2 | %52
 B,,2 E,2 E,,2 | A,,2 B,,2 C,2 | D,2 (3z z D, (3:2:2D,2 D, | D,,2 (3z z D, (3:2:2D,2 D, | %56
 G,2 F,2 E,2 | B,2 B,,2 E,2 | C,2 D,2 D,,2 | %59
 A,,/4G,,/4A,,/4G,,/4A,,/4G,,/4A,,/4G,,/4 A,,/4G,,/4A,,/4G,,/4A,,/4G,,/4A,,/4G,,/4 A,,/4G,,/4A,,/4G,,/4A,,/4G,,/4A,,/4G,,/4 | %60
 A,,/4G,,/4A,,/4G,,/4A,,/4G,,/4A,,/4G,,/4 A,,/4G,,/4A,,/4G,,/4A,,/4G,,/4A,,/4G,,/4 A,,/4G,,/4A,,/4G,,/4A,,/4G,,/4A,,/4G,,/4 | %61
 A,,/4G,,/4A,,/4G,,/4A,,/4G,,/4A,,/4G,,/4 A,,/4G,,/4A,,/4G,,/4A,,/4G,,/4A,,/4G,,/4 A,,/4G,,/4A,,/4G,,/4A,,/4G,,/4A,,/4G,,/4 | %62
 A,,/4G,,/4A,,/4G,,/4A,,/4G,,/4A,,/4G,,/4 A,,/4G,,/4A,,/4G,,/4A,,/4G,,/4A,,/4G,,/4 A,,/4G,,/4A,,/4G,,/4A,,/4G,,/4A,,/4G,,/4 | %63
 A,,/4G,,/4A,,/4G,,/4A,,/4G,,/4A,,/4G,,/4 G,2 E,2 | B,,2 E,2 E,,2 | A,,2 B,,2 C,2 | D,2 F,2 D,2 | %67
 G,2 E,2 C,2 | B,,2 E,2 D,2 | C,2 =C,2 D,2 | G,,6 |] %71
V:5
 z6 | z6 | z6 | z6 | z6 | z6 | z6 | z6 | B4 c2 | d4 d2 | c4 B2 | A2 A2 z2 | z6 | B4 c2 | d4 B2 | %15
 (6:4:3A2 B/c/ B2 B/4A/4B/4A/4B/4A/4B/4A/4 | G4 z2 | z6 | z6 | z6 | z6 | z6 | z6 | B4 c2 | d4 d2 | %25
 c4 B2 | A2 A2 z2 | z6 | B4 c2 | d4 B2 | (6:4:3A2 B/c/ B2 B/4A/4B/4A/4B/4A/4B/4A/4 | G4 z2 | z6 | %33
 z6 | z6 | z6 | z6 | z6 | z6 | A4 B2 | c4 c2 | B2- (6:4:3B2 c/d/ B2 | A2 A2 z2 | z6 | z6 | A4 B2 | %46
 e4 e2 | d2- (6:4:3d2 e/_f/ d2 | c2 c2 z2 | z6 | z6 | B4 c2 | d4 d2 | %53
 c2 c/4B/4c/4B/4c/4B/4c/4B/4 c/4B/4c/4B/4c/4B/4c/4B/4 | A4 z2 | z6 | B4 c2 | d4 B2 | %58
 AB/c/ B/4A/4B/4A/4B/4A/4B/4A/4 B/4A/4B/4A/4B/4A/4B/4A/4 | G6 | z6 | z6 | z6 | z6 | z6 | z6 | z6 | %67
 z6 | z6 | z6 | z6 |] %71
V:6
 z6 | z6 | z6 | z6 | z6 | z6 | z6 | z6 | D4 E2 | A,4 B,2 | B,2 A,2 G,2 | F,2 A,2 z2 | z6 | D4 E2 | %14
 D2 B,2 B,2 | CA, DB, C2 | B,4 z2 | z6 | z6 | z6 | z6 | z6 | z6 | D4 E2 | A,4 B,2 | B,2 A,2 G,2 | %26
 F,2 A,2 z2 | z6 | D4 E2 | D2 B,2 B,2 | CA, DB, C2 | B,4 z2 | z6 | z6 | z6 | z6 | z6 | z6 | z6 | %39
 D4 D2 | E4 _F2 | _F2 D2 E2 | C2 C2 z2 | z6 | z6 | E4 D2 | C4 C2 | A,4 B,2 | E2 E2 z2 | z6 | z6 | %51
 D4 E2 | D2 E2 B,2 | C2 D2 E2 | A,4 z2 | z6 | D4 E2 | D2 B,2 B,2 | CA, DB, C2 | B,6 | z6 | z6 | %62
 z6 | z6 | z6 | z6 | z6 | z6 | z6 | z6 | z6 |] %71
V:7
 z6 | z6 | z6 | z6 | z6 | z6 | z6 | z6 | G4 G2 | A2 G2 F2 | G2 D4 | D2 D2 z2 | z6 | G4 G2 | %14
 G2 D2 E2 | E2 FE F2 | D4 z2 | z6 | z6 | z6 | z6 | z6 | z6 | G4 G2 | A2 G2 F2 | G2 D2 D2 | %26
 D2 D2 z2 | z6 | G4 G2 | G2 D2 E2 | E2 FE F2 | D4 z2 | z6 | z6 | z6 | z6 | z6 | z6 | z6 | F4 =G2 | %40
 A4 A2 | A4 =G2 | A2 A2 z2 | z6 | z6 | A4 G2 | G2 c2 G2 | _F2 A2 G2 | G2 G2 z2 | z6 | z6 | G4 G2 | %52
 G4 G2 | GF G4 | F4 z2 | z6 | G4 G2 | G2 D2 E2 | E2 FE F2 | D6 | z6 | z6 | z6 | z6 | z6 | z6 | z6 | %67
 z6 | z6 | z6 | z6 |] %71
V:8
 z6 | z6 | z6 | z6 | z6 | z6 | z6 | z6 | G,2 F,2 E,2 | F,2 E,2 D,2 | E,2 F,2 G,2 | D,2 D,2 z2 | %12
 z6 | G,2 F,2 E,2 | B,2 B,,2 E,2 | C,2 D,2 D,2 | G,,4 z2 | z6 | z6 | z6 | z6 | z6 | z6 | %23
 G,2 F,2 E,2 | F,2 E,2 D,2 | E,2 F,2 G,2 | D,2 D,2 z2 | z6 | G,2 F,2 E,2 | B,2 B,,2 E,2 | %30
 C,2 D,2 D,2 | G,,4 z2 | z6 | z6 | z6 | z6 | z6 | z6 | z6 | D,2 C,2 B,,2 | A,,2 A,G, _F,E, | %41
 D,2 B,,2 E,2 | A,,2 A,,2 z2 | z6 | z6 | A,4 B,2 | C2 A,2 E,2 | _F,2 D,2 G,2 | C,2 C,2 z2 | z6 | %50
 z6 | G,4 E,2 | B,2 B,2 E,2 | A,,2 B,,2 C,2 | D,4 z2 | z6 | G,2 F,2 E,2 | B,2 B,,2 E,2 | C,2 D,4 | %59
 G,,6 | z6 | z6 | z6 | z6 | z6 | z6 | z6 | z6 | z6 | z6 | z6 |] %71

